X:1
T: Gordon B. Cosh
C:
R:Jig
Q:180
K:A
M:6/8
L:1/16
|:A2|A3BA2 e4A2|d3ef2 e4d2|c3ea2 e2d2c2|c3BB2 d3cB2|
c3BA2 a3ec2|d2f2a2 e4d2|c3ea2 a4c2|1B6 A2z2:|2B6 A3ce2|
|:a6 e2c2A2|d3ef2 e2f2g2|a3fa2 e3dc2|c3BA2 d2c2B2|
a6 e2c2A2|d3ef2 e4d2|c2e2a2 a2e2c2|1B6 A2c2e2:|2B6A4||
